X:1
T:Title
%%score { ( 1 3 ) | 2 }
L:1/8
M:3/4
K:Bb
V:1 treble nm="Grand Piano"
V:3 treble 
V:2 bass 
V:1
 z2 z2 z[Q:1/4=86] [DF] | [DF]>[DG] [DG]3 [DB] | [EB]>A A3 A | G3 E A>G |[M:5/8] [DF]- [DF]3 z | %5
[M:1/8] [DF] |[M:3/4] [DF]>[DG] [DG]3 [DFB] | [CGB]>[CFA] [CFA]3 [Fc] | [=Ec][CEG] [DEB]3 [CEA] | %9
 F4 z2 | e>=B d3 c | [DB]>[_DG] [=DF]4 | e>=B dc AF |[M:5/8] [_DG]2 [=DF]3 |[M:1/8] [Fd] | %15
[M:3/4] [Fd]>[Ec] [DB]2 [_Af]2 | [Gf]>[Ge] [EG]3 [Ge] | d>e d3 B | c2 z2 z2 |] %19
V:2
 z2 z2 z [B,,B,] | [B,,B,]>[B,,B,] [B,,B,]3 [B,,G,] | [C,F,]>[F,CE] [F,CE]3 [F,CE] | %3
 [F,A,E]3 [F,A,C] [F,CE]>[F,A,E] |[M:5/8] [B,,B,]- [B,,B,]3 z |[M:1/8] [B,,B,] | %6
[M:3/4] [B,,B,]>[B,,B,] [B,,B,]3 B,, | F,>F, F,3 [F,A,] | [C,G,]C, C,3 C, | [F,A,]4 z2 | %10
 [F,CF]>[F,_A,F] [F,=A,F]3 [F,E] | [B,,F,]>[B,,G,] [B,,B,]4 | %12
 [F,CF]>[F,_A,F] [F,=A,F][F,A,E] [F,CE][F,A,E] |[M:5/8] [B,,B,]2 [B,,B,]3 |[M:1/8] [B,,B,] | %15
[M:3/4] [F,A,]>[F,A,] [B,,B,]2 [E,B,]2 | [E,B,]>[E,B,] [E,B,]3 [E,B,] | %17
 [F,B,F]>[F,CF] [F,B,F]3 [F,B,D] | .[F,A,E]2 [B,,F,]4 |] %19
V:3
 x6 | x6 | x6 | x6 |[M:5/8] x5 |[M:1/8] x |[M:3/4] x6 | x6 | x6 | x6 | x6 | x6 | x6 |[M:5/8] x5 | %14
[M:1/8] x |[M:3/4] x6 | x6 | x6 | z F, [DB]4 |] %19

